X: 5951
T: Campbell River
R: jig
M: 6/8
K: Bminor
|:c|d2 d c2 c|BFE DB,C|D<EF Bcd|cA/A/A A2 c|
dcd cBc|BFE DEF|B2 d cAc|1 B3- B2:|2 B3- B||
|:Bc|dcd B2 d|e2 c ABc|d2 d BB/c/d|e>AB cde|
f>ed B2 F|DB,C D3|BB/c/d c2 ^A|1 B3- B:|2 B2 F B2||

